X:1
T:Title
%%score { 1 | ( 2 3 ) }
L:1/8
M:3/4
K:D
V:1 treble nm="Grand Piano"
V:2 bass 
V:3 bass 
V:1
 z2 z2[Q:1/4=86] [FA][Fd] | [Gd]3 [Gc] [EG][Gc] | [=FB]2 [^FA]2 FB | B3 E [CA][CG] | %4
[M:2/4] [EG]2 F2 |[M:1/4] FB |[M:3/4] B3 ^A Fc | [Ec]2 [DB]2 [DB][Ec] | %8
 [Fd]3 [B,FB] [B,DF][B,D^G] |[M:2/4] [A,CA]4 |[M:1/4] AA |[M:3/4] e3 d cB | B2 A2 AA | %13
 [Fd]3 [DF] [DG][DB] |[M:2/4] A4 |[M:1/4] AA |[M:3/4] B3 B cc |[M:7/8] d2 d3 dd | %18
[M:3/4] d3 A [EG][CE] |[M:2/4] D4 |] %20
V:2
 z2 z2 [D,A,][D,A,] | [E,A,]3 [E,A,] [A,,A,][A,,A,] | [D,^G,]2 [D,A,]2 [D,A,D][D,F,D] | %3
 [E,G,C]3 [E,G,C] [A,,F,][A,,E,] |[M:2/4] z2 D2 |[M:1/4] F,[F,DF] | %6
[M:3/4] [F,DF]3 [F,CF] [F,^A,][F,A,E] | [B,,B,]2 [B,,B,]2 [B,,B,][B,,B,] | [B,,B,]3 D, E,E, | %9
[M:2/4] A,,4 |[M:1/4] A,A, |[M:3/4][K:treble] [A,CG]3 [A,DG] [A,EG][A,DG] | %12
 [A,CG]2 [A,CG]2 [A,CG][A,CG] | [D,D]3 [=C,A,] [B,,G,][G,,G,] |[M:2/4] [D,F,D]4 | %15
[M:1/4] [D,F,D][D,F,D] |[M:3/4] [G,D]3 [G,D] [G,E][G,A,E] | %17
[M:7/8] [F,A,D]2[K:treble] [B,DF]3 [^G,B,=F][G,B,F] |[M:3/4] [A,F]3 [A,F][K:bass] [A,,A,][A,,G,] | %19
[M:2/4] [D,F,]4 |] %20
V:3
 x6 | x6 | x6 | x6 |[M:2/4] D,4 |[M:1/4] x2 |[M:3/4] x6 | x6 | x6 |[M:2/4] x4 |[M:1/4] x2 | %11
[M:3/4][K:treble] x6 | x6 | x6 |[M:2/4] x4 |[M:1/4] x2 |[M:3/4] x6 |[M:7/8] x2[K:treble] x5 | %18
[M:3/4] x4[K:bass] x2 |[M:2/4] x4 |] %20

